img/icons/visa_logo.svg

<svg width="54" height="16" viewBox="0 0 54 16" fill="none" xmlns="http://www.w3.org/2000/svg">
<path d="M27.9275 5.09464C27.8967 7.31449 30.0922 8.55334 31.7462 9.28983C33.4456 10.0456 34.0163 10.5302 34.0098 11.2059C33.9969 12.2402 32.6543 12.6967 31.3976 12.7144C29.2053 12.7456 27.9308 12.1736 26.9173 11.7408L26.1276 15.118C27.1443 15.5463 29.0269 15.9197 30.9792 15.936C35.5616 15.936 38.5598 13.8688 38.5761 10.6635C38.5939 6.59578 32.4191 6.37053 32.4613 4.55227C32.4759 4.00102 33.0515 3.41271 34.3131 3.26304C34.9374 3.18747 36.661 3.12967 38.615 3.95211L39.382 0.684581C38.3312 0.334859 36.9805 -4.48227e-05 35.299 -4.48227e-05C30.9857 -4.48227e-05 27.9518 2.09533 27.9275 5.09464ZM46.7518 0.28151C45.9151 0.28151 45.2097 0.727555 44.8951 1.41218L38.349 15.696H42.9282L43.8395 13.3946H49.4354L49.964 15.696H54L50.4781 0.28151H46.7518ZM47.3923 4.44558L48.7138 10.2338H45.0946L47.3923 4.44558ZM22.3754 0.28151L18.7659 15.696H23.1294L26.7373 0.28151H22.3754ZM15.9201 0.28151L11.3782 10.7732L9.54105 1.8523C9.32539 0.856479 8.47409 0.28151 7.52874 0.28151H0.103778L0 0.729036C1.52423 1.03134 3.25602 1.51888 4.30515 2.0405C4.94727 2.3591 5.1305 2.63769 5.3413 3.39493L8.82109 15.696H13.4327L20.5026 0.28151H15.9201Z" fill="url(#paint0_linear)"/>
<defs>
<linearGradient id="paint0_linear" x1="24.8261" y1="16.2557" x2="25.2477" y2="-0.113009" gradientUnits="userSpaceOnUse">
<stop stop-color="#222357"/>
<stop offset="1" stop-color="#254AA5"/>
</linearGradient>
</defs>
</svg>

<svg width="54" height="16" fill="none" xmlns="http://www.w3.org/2000/svg"><path d="M27.927 5.095c-.03 2.22 2.165 3.458 3.82 4.195 1.699.756 2.27 1.24 2.263 1.916-.013 1.034-1.356 1.49-2.612 1.508-2.193.032-3.467-.54-4.48-.973l-.79 3.377c1.016.428 2.899.802 4.851.818 4.583 0 7.58-2.067 7.597-5.272.018-4.068-6.157-4.293-6.115-6.112.015-.551.59-1.14 1.852-1.289.624-.076 2.348-.133 4.302.69l.767-3.268A12.672 12.672 0 0035.299 0c-4.313 0-7.347 2.095-7.372 5.095zM46.752.282c-.837 0-1.542.446-1.857 1.13L38.35 15.696h4.58l.91-2.301h5.596l.529 2.301H54L50.478.282h-3.726zm.64 4.164l1.322 5.788h-3.62l2.298-5.788zM22.375.282l-3.61 15.414h4.364L26.737.282h-4.362zm-6.455 0l-4.542 10.491-1.837-8.92C9.325.855 8.474.281 7.529.281H.104L0 .729c1.524.302 3.256.79 4.305 1.312.642.318.825.597 1.036 1.354l3.48 12.301h4.612L20.503.282H15.92z" fill="url(#paint0_linear)"/><defs><linearGradient id="paint0_linear" x1="24.826" y1="16.256" x2="25.248" y2="-.113" gradientUnits="userSpaceOnUse"><stop stop-color="#222357"/><stop offset="1" stop-color="#254AA5"/></linearGradient></defs></svg>
